X: 2
T: Liberty
R: reel
M: 4/4
L: 1/8
K: Dmaj
"D" f2 A2 f2 A2 | fgfe d2 ef | "G" g2 B2 g2 B2 | gagf e2 de |"D" f2 A2 f2 A2 | fgfe d2 ef | "G" gfed "A" cABc | "D" d2 f2 d4 :||: "D" A2 AB AGFE | DFAd f2 d2 | A2 AB AG F2 | "A" E3 F E2 FG |"D" A2 AB AGFE | DFAd f2 ef | "G" gfed "A" cABc | "D" d2 f2 d4 :|


Tune 2317	Setting 15685

